X:1
T:Come, gentle swains - Cavendish
T:James Gibb editions
T:#
%%score { 1 | 2 } 3 4 5
L:1/8
Q:1/4=120
M:2/2
K:G
V:1 treble nm="Soprano I" snm="S"
V:2 treble 
V:3 treble nm="Alto" snm="A"
V:4 treble-8 nm="Tenor" snm="T"
V:5 bass nm="Bass" snm="B"
V:1
"^Come, gentle swains" z8 | z8 | z8 |!mp! G4 B2"^Michael Cavendish\n(c.1565-1628)" e2 | d4 G2 c2- | %5
w: |||Come, gen- tle|swains, and shep­|
 c2 B2 d3 c | B2 B2 B2 G2 | (A2 G2) G2 F2 | G2 G2 G2 E2- | E2 E2 e4 | z8 | G4 B2 e2 | d4 G2 c2- | %13
w: * herds' dain- ty|daugh- ters, and shep-|herds' * dain- ty|daugh- ters, A- dorned,|* a- dorned.||Come, gen- tle|swains, and shep­|
 c2 B2 d3 c | B2 A2 B2 G2 | A2 (G4 F2) | G4!f! G4 | c6 B2 | A4 G4 | F4!p! d4 | e6 d2 | c2 B2 A4 | %22
w: * herds' dain- ty,|dain- ty daugh- ters,|A- dorn­ *|ed, a-|dorned with|cour- te-|sy, a-|dorned with|cour- te- sy|
"^cresc." d4 c2 (B2 | A2 G2) A4 | B2!f! G2 B2 G2 | (dcBA G2) d2 | B2 A2 ^c2 d2 | d2 d2 z4 | %28
w: and come- ly|* * du-|ties, Come, sing and|joy * * * * and|grace with love- ly|laugh- ters,|
 z4 A2 d2 | B2 G4 A2 | A8 ||[M:3/2] z12 | A8!mf! G4 | c8 B4 | A8 G4 | F6 E2 F4 | G4 G8 || %37
w: and grace|with love- ly|laugh-||ters The|birth- day|of the|beau- tiest of|beau- ties.|
[M:2/2] z8 |!f! B4 B2 A2 | B2 A2 e2 d2- | dd ^c2 d2 d2 | z8 | z2 d2 c2 B2 | A2 G4 F2 | %44
w: |Then sang the|shep- herds and nymphs|* of Di- a- na:||Long live fair|O- ri- a-|
 G2 G2 A2 c2 | B2 A2 G2 G2 | z4 d3 c | B2 BB (c2 G2) | d4 z4 | d2 dd d4 | d8 |!p! d4 d2 d2 | %52
w: na, long live fair|O- ri- a- na,|long live|fair O- ri- a­ *|na,|fair O- ri- a-|na.|Then sang the|
 d2 d2 G2 B2- | BA G2 F2 F2 |!f! G4 A2 c2 | B2 A2 G2 G2 | z4 z2 d2 | B3 B c2 A2 | F2 F2 z4 | z8 | %60
w: shep- herds and nymphs|* of Di- a- na:|Long live fair|O- ri- a- na,|long|live fair O- ri-|a- na,||
 G4 A2 c2 | B2 A2 d2 cB | (A2 G2 A4) | !fermata!B8 |] %64
w: fair O- ri-|a- na, fair O- ri-|a­ * *|na.|
V:2
 z8 | z8 | z8 | z8 | z8 |!mp! G4 B2 e2 | d4 G2 c2- | c2 B2 d3 c | B2 B2 c4 | B6"^with" c2 | %10
w: |||||Come, gen- tle|swains, and shep­|* herds' dain- ty|daugh- ters, A-|dorned *|
 A3 A B2 d2 | e2 (c2 d3 c) | B2 A2 z4 | G4 B2 e2 | d4 G2 c2- | c2 B2 d3 c | B2 B2!f! d4 | e6 d2 | %18
w: cour- te- sy and|come- ly * *|du- ties,|Come, gen- tle|swains, and shep­|* herds' dain- ty|daugh- ters, A-|dorned with|
 c4!>(! B4 | A6!p! B2 | c6 B2 | A2 G2 F4- | F2"^cresc." B2 A2 G2 | (F2 G4 F2) | G8 | z8 | z8 | %27
w: cour- te-|sy, a-|dorned with|cour- te- sy|* and come- ly|du­ * *|ties,|||
 z4!f! G4 | B2 G2 (dcBA | G2) B2 d3 d | e2 f2 e4 ||[M:3/2] z12 | d8!mf! B4 | e8 d4 | c6 (d2 B4) | %35
w: Come,|sing and joy * * *|* and grace with|love- ly laugh-||ters The|birth- day|of the *|
 A6 G2 A4 | B4 B8 ||[M:2/2] z8 |!f! d4 d2 d2 | d2 d2 G2 B2- | BA G2 F2 F2 | G4 A2 c2 | %42
w: beau- tiest of|beau- ties.||Then sang the|shep- herds and nymphs|* of Di- a- na:|Long live fair|
 B2 A2 G2 G2 | z4 z2 d2 | B3 B c2 A2 | F2 F2 z4 | z8 | G4 A2 c2 | B2 A2 d2 cB | (A2 G2 A4) | B8 | %51
w: O- ri- a- na,|long|live fair O- ri-|a- na,||fair O- ri-|a- na, fair O- ri-|a­ * *|na.|
!p! B4 B2 A2 | B2 A2 e2 d2- | dd ^c2 d2 d2 | z8 | z2!f! d2 c2 B2 | A2 G4 F2 | G2 G2 A2 c2 | %58
w: Then sang the|shep- herds and nymphs|* of Di- a- na:||Long live fair|O- ri- a-|na, long live fair|
 B2 A2 G2 G2 | z4 d3 c | B2 BB (c2 G2) | d4 z4 | d2 dd d4 | !fermata!d8 |] %64
w: O- ri- a- na,|long live|fair O- ri- a­ *|na,|fair O- ri- a-|na.|
V:3
!mp! D4 E2 A2 | G4 D2 G2- | G2 F2 G3 F | E2 E2 G4 | F2 F2 E3 F | G2 D2 G2 G2 | G4 G4 | z8 | %8
w: Come, gen- tle|swains, and shep­|* herds' dain- ty|daugh- ters, A-|dorned with cour- te-|sy and come- ly|du- ties,||
 D4 E2 A2 | G4 E2 G2- | G2 F2 G3 F | E2 E2 G4 | F2 F2 E3 F | G2 D2 G4- | G2 F2 (ED E2 | F2 G2) A4 | %16
w: Come, gen- tle|swains, and shep­|* herds' dain- ty|daugh- ters, A-|dorned with cour- te-|sy and come­|* ly du­ * *|* * ties,|
 z4!f! B4 | E6 =F2 | =F4!>(! D4 | D4!>)!!p! F4 | G2 G2 G4 | E4 z2"^cresc." D2 | D2 (GF) E2 E2 | %23
w: A-|dorned with|cour- te-|sy and|come- ly du-|ties, and|come- ly * du- ties,|
 z2 D2 D2 D2 | D8 | D4!f! D4 | (G2 F2 G2) A2 | (BAGF E2) D2 | E2 D2 D4 | z2 B,2 G2 F2 | E2 D2 E4 || %31
w: and come- ly|du-|ties, Come,|sing * * and|joy * * * * and|grace with love,|and grace with|love- ly laugh-|
[M:3/2] z12 | F8!mf! D4 | G8 =F4 | C6 (=F2 D4) | D6 B,2 D4 | D4 D8 ||[M:2/2] z8 |!f! D4 D2 D2 | %39
w: |ters The|birth- day|of the *|beau- tiest of|beau- ties.||Then sang the|
 G2 F2 z4 | z4 D4 | E2 G2 F2 E2 | D2 D2 z4 | z4 D4 | E2 G2 F2 E2 | DD d2 c2 B2 | A2 (G4 F2) | %47
w: shep- herds:|Long|live fair O- ri-|a- na,|long|live fair O- ri-|a- na, long live fair|O- ri­ *|
 G2 D2 z2 E2 | F4 G4 | F2 G4 F2 | G8 |!p! D4 D2 D2 | G2 F2 z4 | z4!f! D4 | E2 G2 F2 E2 | D2 D2 z4 | %56
w: a- na, long|live fair|O- ri- a-|na.|Then sang the|shep- herds:|Long|live fair O- ri-|a- na,|
 z4 D4 | E2 G2 F2 E2 | DD d2 c2 B2 | A2 (G4 F2) | G2 D2 z2 E2 | F4 G4 | F2 G4 F2 | !fermata!G8 |] %64
w: long|live fair O- ri-|a- na, long live fair|O- ri­ *|a- na, long|live fair|O- ri- a-|na.|
V:4
 z8 |!mp! G4 B2 e2 | d4 G4 | c4 G4 | A3 d B2 A2 | d4 B2 G2 | (Bcd)G B2 e2 | A2 d2 A4 | G4 z4 | %9
w: |Come, gen- tle|swains, and|shep- herds'|dain- ty daugh- ters,|A- dorned with|cour­ * * te- sy and|come- ly du-|ties,|
 G4 B2 e2 | d4 B4 | c4 G4 | d3 c B2 A2 | d4 B2 G2 | (Bcd)A G2 G2 | d3 d A4 | G4!f! G4 | G6 =F2 | %18
w: Come, gen- tle|swains, and|shep- herds'|dain- ty daugh- ters,|A- dorned with|cour­ * * te- sy and|come- ly du-|ties, A-|dorned with|
 (A4 B2)!>(! G2 | A6!>)!!p! d2 | G4 G4 | A6"^cresc." A2 | B2 d2 e2 E2 | (A2 B2 A4) | G6!f! G2 | %25
w: cour­ * te-|sy a-|dorned with|cour- te-|sy and come- ly|du­ * *|ties, Come,|
 B2 G2 (dcBA | G2) A2 e2 f2 | d2 B2 c2 G2 | g4 g2 f2 | (gfed B2) A2 | ^c2 d2 d2 c2 ||[M:3/2] z12 | %32
w: sing and joy * * *|* and grace with|love- ly laugh- ters,|come, sing and|joy * * * * and|grace with love- ly||
 d4 d4!mf! G4 | G8 d4 | A8 (B2 G2) | A6 E2 A4 | G4 G8 ||[M:2/2] z8 |!f! B4 G2 A2 | d2 d2 B2 B2- | %40
w: laugh- ters The|birth- day|of the *|beau- tiest of|beau- ties.||Then sang the|shep- herds and nymphs|
 Bd G2 A2 A2 | E2 E2 A3 A | F2 F2 G4 | A2 c2 B2 A2 | G2 G2 z4 | z4 G4 | A2 c2 B2 A2 | G2 G2 z4 | %48
w: * of Di- a- na:|Long live O- ri-|a- na, long|live fair O- ri-|a- na,|long|live fair O- ri-|a- na,|
 d3 c B2 AG | (A2 B2 A4) | G8 |!p! B4 G2 A2 | d2 d2 B2 B2- | Bd G2 A2 A2 |!f! E2 E2 A3 A | %55
w: long live fair O- ri-|a­ * *|na.|Then sang the|shep- herds and nymphs|* of Di- a- na:|Long live O- ri-|
 F2 F2 G4 | A2 c2 B2 A2 | G2 G2 z4 | z4 G4 | A2 c2 B2 A2 | G2 G2 z4 | d3 c B2 AG | (A2 B2 A4) | %63
w: a- na, long|live fair O- ri-|a- na,|long|live fair O- ri-|­a- na,|long live fair O- ri-|a­ * *|
 !fermata!G8 |] %64
w: na.|
V:5
 z8 | z8 | z8 | z8 |!mp! D,4 E,2 A,2 | G,4 G,4 | G,4 E,4 | D,6 D,2 | G,,2 G,,2 C,4 | E,6 C,2 | %10
w: ||||Come, gen- tle|swains, and|shep- herds'|dain- ty|daugh- ters, A-|dorned with|
 D,3 D, G,,4 | z8 | D,4 E,2 A,2 | G,4 G,4 | (G,2 D,2 G,2) E,2 | D,6 D,2 | G,,2 G,,2!f! G,4 | %17
w: cour- te- sy,||Come, gen- tle|swains, and|shep­ * * herds'|dain- ty|daugh- ters, A-|
 C,6 D,2 | =F,4!>(! G,4 | D,4!>)!!p! D,4 | C,8- | C,4 D,4 |"^cresc." (B,,4 C,4 | D,8) | G,,8- | %25
w: dorned with|cour- te-|sy and|come­|* ly|du­ *||ties,|
 G,,8 | z2!f! D,2 E,2 D,2 | (G,F,E,D, C,2) B,,2 | E,2 G,2 D,4 | E,2 G,4 D,2 | A,8 ||[M:3/2] z12 | %32
w: |Come, sing and|joy * * * * and|grace with love,|with love- ly|laugh-||
 D,8!mf! G,4 | C,8 (D,3 E,) | =F,6 (D,2 G,4) | D,6 E,2 D,4 | G,4 G,,8 ||[M:2/2] z8 | %38
w: ters The|birth- day *|of the *|beau- tiest of|beau- ties.||
!f! G,4 G,2 F,2 | G,2 D,2 E,2 G,2- | G,F, E,2 D,2 D,2 | C,3 B,, A,,2 A,,2 | D,4 E,2 G,2 | %43
w: Then sang the|shep- herds and nymphs|* of Di- a- na,|of Di- a- na:|Long live fair|
 F,2 E,2 D,2 D,2 | z2 E,2 A,,4 | D,4 E,2 G,2 | F,2 E,2 D,2 D,2 | z2 G,2 F,2 E,2 | D,4 D,4 | D,8 | %50
w: O- ri- a- na,|long live,|long live fair|O- ri- a- na,|long live fair|O- ri-|a-|
 G,,8 |!p! G,4 G,2 F,2 | G,2 D,2 E,2 G,2- | G,F, E,2 D,2 D,2 | C,3 B,, A,,2 A,,2 |!f! D,4 E,2 G,2 | %56
w: na.|Then sang the|shep- herds and nymphs|* of Di- a- na,|of Di- a- na:|Long live fair|
 F,2 E,2 D,2 D,2 | z2 E,2 A,,4 | D,4 E,2 G,2 | F,2 E,2 D,2 D,2 | z2 G,2 F,2 E,2 | D,4 D,4 | D,8 | %63
w: O- ri- a- na,|long live,|long live fair|O- ri- a- na,|long live fair|O- ri-|a-|
 !fermata!G,,8 |] %64
w: na.|

